X:0643
T:Groans of the Wounded.
M:C
L:1/8
Q:1/4=72 "Slow"
I: :: ::
Z:Jack Campin * www.campin.me.uk * 2009
K:D
f2fe  d2BA |A2 Bd  e2e2|f2fe d2BA|A2Bc d4:|
e2g>f e2g>f|e>dc>d e2e2|f2fe d2BA|A2Bc d4:|
<end>
<start>
